X: 1
T:Paddy on the Cellphone
M:4/4
L:1/8
C:Wil Macaulay 1997
R:Reel
K:Bm
B,2 | E/E/E EF G2FE |E/E/E BE GFED| E/E/E EF G2FE| BdcAB2 :|
Bc|d/d/d  f2 edcB| cee/e/e dcBA | BABc dFF/F/F | BdcA B2:|
